icon-svg/twinkly-icicle.svg

<svg xmlns="http://www.w3.org/2000/svg" fill="#44739e" viewBox="0 0 24 24"><path d="m14.444 5.3.02-.365h-.255l-.313.113.022-1.669.261.052h.258l.02-.365-.256.005-.279.1.007-.519h-.347l-.012.648-.025.009.025.005-.185 14.149h.347v-.026l.455.091h.257l.02-.365h-.255l-.473.171.021-1.642.432.087h.257l.02-.365h-.255l-.45.164.021-1.629.409.082h.257l.02-.365h-.255l-.428.155.022-1.616.386.077.257-.005.02-.364h-.255l-.405.147.021-1.6.364.073.257-.005.02-.365h-.255l-.382.138.021-1.59.341.068h.257l.02-.365-.255.005-.359.13.021-1.578.318.064h.257l.02-.365h-.255l-.336.122.02-1.565.3.059zm-.174-.295h.123l-.012.231h-.124Zm-.009-1.866h.123l-.013.23h-.123zm.009 14.1h.123l-.012.231h-.124zm0-1.747h.123l-.012.231h-.124zm0-1.747h.123l-.012.231h-.124zm0-1.747h.123l-.012.23h-.124zm0-1.747h.123l-.012.23h-.124zm0-1.747h.123l-.012.23h-.124zm0-1.748h.123l-.012.231h-.124Zm5.83-2.835.02-.365h-.256l-.456.165V2.656h-.347l-.046 11.132h.3l.523.105h.258l.02-.365h-.256l-.5.181.006-1.437.4.081h.258l.02-.365h-.256l-.421.153.006-1.329.466.093h.258l.02-.365h-.256l-.486.176.007-1.652.459.092h.258l.02-.365h-.256l-.478.174.007-1.648.451.09h.258l.02-.365h-.256l-.471.171.006-1.631.444.089h.258l.02-.365h-.256l-.463.168.007-1.64.436.088zm-.174-.295h.123l-.013.231h-.123zm0 9.974h.123l-.013.231h-.123zm-.071-1.539h.123l-.013.231h-.123zm.071-1.446h.123l-.013.23h-.123zm0-1.747h.123l-.013.23h-.123zm0-1.747h.123l-.013.23h-.123zm0-1.748h.123l-.013.231h-.123zm1.996-.399.021-.365h-.256l-.278.1V3.173l.254.051.257-.005.021-.365h-.256l-.274.1v-.3h-.347v.423l-.031.012.031.006v1.731l-.027.01h.027V6.57l-.022.008h.022v1.737l-.018.006h.018v1.738l-.014.005h.014v1.741h-.009.009v4.832h.347v-.093l.287.057h.257l.021-.365h-.256l-.307.111v-1.269l.284.057h.257l.021-.365h-.256l-.3.11v-1.267l.28.056h.257l.021-.365h-.256l-.3.108v-1.547l.276.055h.257l.021-.365h-.256l-.295.107v-1.546l.271.055h.257l.021-.365h-.256l-.291.106V8.369l.267.054h.257l.021-.365h-.256l-.287.1v-1.54l.263.052h.257l.021-.364h-.256l-.282.1V4.868l.258.051zm-.173-.294h.123l-.013.23h-.123zm0-1.747h.123l-.013.23h-.123zm0 13.411h.123l-.013.23h-.123zm0-1.465h.123l-.013.231h-.123zm0-1.464h.123l-.013.231h-.123zm0-1.747h.123l-.013.231h-.123zm0-1.747h.123l-.013.231h-.123zm0-1.747h.123l-.013.231h-.123zm0-1.747h.123l-.013.23h-.123ZM18.277 3.5l.02-.365h-.256l-.473.172v-.66h-.348l-.006 3.957h.174l.631.127h.258l.02-.365h-.256l-.478.174V5.154l.456.091h.258l.02-.365h-.256l-.475.173V3.405l.453.091zm-.177-.291h.123l-.013.23h-.123zm0 3.231h.123l-.013.231h-.123zm0-1.484h.123l-.013.23h-.123Zm-7.5-1.827.02-.365h-.256l-.452.164v-.273h-.344l-.053 12.64h.347v-.03l.484.1h.258l.02-.365h-.256l-.5.183.007-1.662.477.1h.258l.02-.365h-.256l-.5.181.007-1.659.469.094h.258l.02-.364h-.256l-.489.178.007-1.654.462.092h.258l.02-.365h-.256l-.482.175.007-1.65.455.091.246-.005.02-.365h-.256l-.474.172.01-1.641.447.09h.258l.02-.365h-.256l-.469.171.007-1.641.44.088h.258l.02-.365h-.256l-.46.167.007-1.638.433.087zm-.174-.295h.123l-.013.231h-.123zm0 12.23h.123l-.013.231h-.123zm0-1.747h.123l-.013.231h-.123zm0-1.747h.123l-.013.23h-.123zm0-1.747h.123l-.013.23h-.123zm0-1.747h.123l-.013.23h-.123zm0-1.748h.123l-.013.231h-.123zm0-1.747h.123l-.013.231h-.123zm5.956-1.341.02-.364h-.255l-.413.15v-.375h-.347l-.032 7.465h.21l.56.112h.257l.02-.365h-.255l-.442.16.004-1.623.416.083h.257l.02-.365h-.255l-.435.157.007-1.623.408.082h.257l.02-.365h-.255l-.428.156.007-1.62.4.081h.257l.02-.365h-.255l-.42.153.007-1.615.393.078zm-.174-.294h.123l-.012.23h-.123zm0 6.988h.123l-.012.231h-.123zm0-1.747h.123l-.012.231h-.123zm0-1.747h.123l-.012.231h-.123zm0-1.747h.123l-.012.231h-.123ZM8.654 3.435l.02-.365h-.255l-.35.13v-.552h-.344L7.7 8.584h.228l.469.094h.258l.02-.365-.255.005-.37.134.007-1.587.343.069h.258l.02-.365h-.255l-.368.131.006-1.582.336.067h.258l.02-.365H8.42l-.355.129.007-1.579.328.066zM8.48 3.14h.123l-.012.231h-.124Zm0 5.242h.123l-.012.23h-.124Zm0-1.747h.123l-.012.23h-.124Zm0-1.748h.123l-.012.231h-.124ZM6.9 3.124l.02-.365h-.256l-.406.147V2.6h-.347l-.019 9.142h.173l.578.116h.258l.02-.365h-.256l-.424.155v-1.619l.4.081h.258l.02-.365h-.256l-.42.153V8.282l.4.079h.258L6.921 8h-.256l-.417.152V6.537l.393.079h.258l.02-.365h-.256l-.413.15V4.789l.39.078h.258l.02-.365h-.256l-.409.149v-1.61l.386.077zm-.173-.294h.123l-.013.23h-.123Zm0 8.735h.123l-.013.231h-.123Zm0-1.747h.123l-.013.231h-.123Zm0-1.747h.123l-.013.23h-.123Zm0-1.747h.123l-.013.23h-.123Zm0-1.747h.123l-.013.23h-.123ZM3.023 3.066l.02-.365h-.256l-.358.13v-.18h-.348l-.024 5.591h.347v-.004l.36.072h.258l.02-.365h-.256l-.38.138.007-1.593.353.071h.258l.02-.365h-.256l-.372.135.006-1.589.346.07h.258l.02-.365H2.79l-.365.132L2.427 3l.338.068zm-.174-.295h.123L2.959 3h-.123Zm0 5.242h.123l-.013.231h-.123Zm0-1.748h.123l-.013.231h-.123Zm0-1.747h.123l-.013.231h-.123Zm9.657-.597.02-.365h-.255l-.358.13.007-1.026h-.347l-.127 18.6h.174l.631.127h.258l.02-.365h-.255l-.477.173.011-1.647.446.09h.258l.02-.365h-.255l-.465.169.011-1.64.434.087h.258l.02-.365h-.255l-.453.164.011-1.633.422.085h.258l.02-.365h-.255l-.442.161.011-1.627.411.083h.258l.02-.365h-.255l-.43.157.011-1.621.4.08h.258l.02-.364h-.255l-.418.152.011-1.613.387.077h.258l.02-.365h-.255l-.406.148.011-1.607.375.075h.258l.02-.365h-.255l-.394.143.011-1.6.363.073h.258l.02-.365h-.255l-.382.139L11.9 5.6l.351.07h.258l.02-.365h-.255l-.37.134.011-1.586.339.068zm-.174-.295h.123l-.013.231h-.123zm0 17.471h.123l-.013.231h-.123zm0-1.747h.123l-.013.231h-.123zm0-1.747h.123l-.013.231h-.123zm0-1.747h.123l-.013.231h-.123zm0-1.747h.123l-.013.231h-.123zm0-1.747h.123l-.013.231h-.123zm0-1.747h.123l-.013.23h-.123zm0-1.747h.123l-.013.23h-.123zm0-1.747h.123l-.013.23h-.123zm0-1.748h.123l-.013.231h-.123ZM5.039 3.62l.02-.365h-.255L4.42 3.4l.01-.732h-.347l-.217 16.61h.347v-.049l.568.114h.258l.02-.365h-.255l-.588.213.022-1.706.546.109h.258l.02-.365h-.255l-.565.205.022-1.694.523.105h.258l.02-.365H4.81l-.542.2.022-1.681.5.1h.258l.02-.365h-.255l-.519.189.022-1.668.477.1h.258l.02-.365L4.8 12l-.5.18.021-1.655.455.091h.258l.02-.364h-.255l-.473.172.024-1.646.432.086h.258l.02-.365-.26.001-.45.163.021-1.629.409.082h.258l.02-.365h-.255l-.428.155.021-1.616.387.077h.258L5.059 5h-.255l-.4.147.021-1.6.364.073zm-.174-.295h.123l-.012.231h-.124Zm0 15.724h.123l-.012.231h-.124Zm0-1.747h.123l-.012.231h-.124Zm0-1.747h.123l-.012.231h-.124Zm0-1.747h.123l-.012.231h-.124Zm0-1.747h.123l-.012.231h-.124Zm0-1.747h.123l-.012.23h-.124Zm0-1.747h.123l-.012.23h-.124Zm0-1.747h.123l-.012.23h-.124Zm0-1.747h.123l-.012.227h-.124Z"/></svg>

<?xml version="1.0" encoding="UTF-8"?>
<svg width="24px" fill="#44739e" height="24px" viewBox="0 0 24 24" version="1.1" xmlns="http://www.w3.org/2000/svg" xmlns:xlink="http://www.w3.org/1999/xlink">
            <path d="m 14.444,5.3 0.02,-0.365 h -0.255 v 0 l -0.313,0.113 0.022,-1.669 0.261,0.052 v 0 h 0.258 l 0.02,-0.365 -0.256,0.005 v 0 l -0.279,0.1 0.007,-0.519 H 13.582 L 13.57,3.3 13.545,3.309 13.57,3.314 13.385,17.463 h 0.347 v -0.026 l 0.455,0.091 v 0 h 0.257 l 0.02,-0.365 h -0.255 v 0 l -0.473,0.171 0.021,-1.642 0.432,0.087 v 0 h 0.257 l 0.02,-0.365 h -0.255 v 0 l -0.45,0.164 0.021,-1.629 0.409,0.082 v 0 h 0.257 l 0.02,-0.365 h -0.255 v 0 l -0.428,0.155 0.022,-1.616 0.386,0.077 v 0 l 0.257,-0.005 0.02,-0.364 h -0.255 v 0 l -0.405,0.147 0.021,-1.6 0.364,0.073 v 0 l 0.257,-0.005 0.02,-0.365 h -0.255 v 0 l -0.382,0.138 0.021,-1.59 0.341,0.068 v 0 h 0.257 l 0.02,-0.365 -0.255,0.005 v 0 l -0.359,0.13 0.021,-1.578 0.318,0.064 v 0 h 0.257 l 0.02,-0.365 h -0.255 v 0 l -0.336,0.122 0.02,-1.565 0.3,0.059 v 0 z M 14.27,5.005 h 0.123 L 14.381,5.236 H 14.257 Z M 14.261,3.139 h 0.123 l -0.013,0.23 h -0.123 z m 0.009,14.1 h 0.123 l -0.012,0.231 h -0.124 z m 0,-1.747 h 0.123 l -0.012,0.231 h -0.124 z m 0,-1.747 h 0.123 l -0.012,0.231 h -0.124 z m 0,-1.747 h 0.123 l -0.012,0.23 h -0.124 z m 0,-1.747 h 0.123 l -0.012,0.23 h -0.124 z m 0,-1.747 h 0.123 l -0.012,0.23 h -0.124 z m 0,-1.748 h 0.123 L 14.381,6.987 H 14.257 Z M 20.1,3.921 20.12,3.556 h -0.256 v 0 L 19.408,3.721 V 2.656 h -0.347 l -0.046,11.132 h 0.3 l 0.523,0.105 v 0 h 0.258 l 0.02,-0.365 H 19.86 v 0 l -0.5,0.181 0.006,-1.437 0.4,0.081 v 0 h 0.258 l 0.02,-0.365 h -0.256 v 0 l -0.421,0.153 0.006,-1.329 0.466,0.093 v 0 h 0.258 l 0.02,-0.365 h -0.256 v 0 l -0.486,0.176 0.007,-1.652 0.459,0.092 v 0 h 0.258 l 0.02,-0.365 h -0.256 v 0 l -0.478,0.174 0.007,-1.648 0.451,0.09 v 0 h 0.258 l 0.02,-0.365 h -0.256 v 0 L 19.394,7.213 19.4,5.582 19.844,5.671 v 0 h 0.258 l 0.02,-0.365 h -0.256 v 0 l -0.463,0.168 0.007,-1.64 0.436,0.088 v 0 z M 19.926,3.626 h 0.123 l -0.013,0.231 h -0.123 z m 0,9.974 h 0.123 l -0.013,0.231 h -0.123 z m -0.071,-1.539 h 0.123 l -0.013,0.231 h -0.123 z m 0.071,-1.446 h 0.123 l -0.013,0.23 h -0.123 z m 0,-1.747 h 0.123 l -0.013,0.23 h -0.123 z m 0,-1.747 h 0.123 l -0.013,0.23 h -0.123 z m 0,-1.748 h 0.123 l -0.013,0.231 h -0.123 z m 1.996,-0.399 0.021,-0.365 h -0.256 v 0 l -0.278,0.1 V 3.173 l 0.254,0.051 v 0 L 21.92,3.219 21.941,2.854 h -0.256 v 0 l -0.274,0.1 v -0.3 h -0.347 v 0.423 l -0.031,0.012 0.031,0.006 v 1.731 l -0.027,0.01 h 0.027 V 6.57 l -0.022,0.008 h 0.022 v 1.737 l -0.018,0.006 h 0.018 v 1.738 l -0.014,0.005 h 0.014 v 1.741 h -0.009 0.009 v 1.744 0 1.463 0 1.625 h 0.347 v -0.093 l 0.287,0.057 v 0 h 0.257 l 0.021,-0.365 H 21.72 v 0 l -0.307,0.111 v -1.269 l 0.284,0.057 v 0 h 0.257 l 0.021,-0.365 h -0.256 v 0 l -0.3,0.11 v -1.267 l 0.28,0.056 v 0 h 0.257 l 0.021,-0.365 h -0.256 v 0 l -0.3,0.108 v -1.547 l 0.276,0.055 v 0 h 0.257 l 0.021,-0.365 h -0.256 v 0 l -0.295,0.107 v -1.546 l 0.271,0.055 v 0 h 0.257 l 0.021,-0.365 h -0.256 v 0 L 21.426,9.912 V 8.369 l 0.267,0.054 v 0 h 0.257 l 0.021,-0.365 h -0.256 v 0 l -0.287,0.1 v -1.54 l 0.263,0.052 v 0 h 0.257 l 0.021,-0.364 h -0.256 v 0 l -0.282,0.1 V 4.868 l 0.258,0.051 v 0 z M 21.749,4.68 h 0.123 l -0.013,0.23 h -0.123 z m 0,-1.747 h 0.123 l -0.013,0.23 h -0.123 z m 0,13.411 h 0.123 l -0.013,0.23 h -0.123 z m 0,-1.465 h 0.123 l -0.013,0.231 h -0.123 z m 0,-1.464 h 0.123 l -0.013,0.231 h -0.123 z m 0,-1.747 h 0.123 l -0.013,0.231 h -0.123 z m 0,-1.747 h 0.123 l -0.013,0.231 h -0.123 z m 0,-1.747 h 0.123 l -0.013,0.231 h -0.123 z m 0,-1.747 h 0.123 l -0.013,0.23 H 21.736 Z M 18.277,3.5 18.297,3.135 h -0.256 v 0 L 17.568,3.307 V 2.647 H 17.22 l -0.006,3.957 h 0.174 l 0.631,0.127 v 0 h 0.258 l 0.02,-0.365 h -0.256 v 0 L 17.563,6.54 V 5.154 l 0.456,0.091 v 0 h 0.258 l 0.02,-0.365 h -0.256 v 0 L 17.566,5.053 V 3.405 l 0.453,0.091 v 0 z M 18.1,3.209 h 0.123 l -0.013,0.23 h -0.123 z m 0,3.231 h 0.123 L 18.21,6.671 h -0.123 z m 0,-1.484 h 0.123 L 18.21,5.186 H 18.087 Z M 10.6,3.129 10.62,2.764 h -0.256 v 0 L 9.912,2.928 V 2.655 H 9.568 l -0.053,12.64 h 0.347 v -0.03 l 0.484,0.1 v 0 h 0.258 L 10.624,15 h -0.256 v 0 l -0.5,0.183 0.007,-1.662 0.477,0.1 v 0 h 0.258 l 0.02,-0.365 h -0.256 v 0 l -0.5,0.181 0.007,-1.659 0.469,0.094 v 0 h 0.258 l 0.02,-0.364 h -0.256 v 0 l -0.489,0.178 0.007,-1.654 0.462,0.092 v 0 h 0.258 l 0.02,-0.365 h -0.256 v 0 l -0.482,0.175 0.007,-1.65 0.455,0.091 v 0 L 10.6,8.37 10.62,8.005 h -0.256 v 0 L 9.89,8.177 9.9,6.536 l 0.447,0.09 v 0 h 0.258 l 0.02,-0.365 h -0.256 v 0 L 9.9,6.432 9.907,4.791 l 0.44,0.088 v 0 h 0.258 l 0.02,-0.365 h -0.256 v 0 L 9.909,4.681 9.916,3.043 10.349,3.13 v 0 z M 10.426,2.834 h 0.123 l -0.013,0.231 h -0.123 z m 0,12.23 h 0.123 l -0.013,0.231 h -0.123 z m 0,-1.747 h 0.123 l -0.013,0.231 h -0.123 z m 0,-1.747 h 0.123 l -0.013,0.23 h -0.123 z m 0,-1.747 h 0.123 l -0.013,0.23 h -0.123 z m 0,-1.747 h 0.123 l -0.013,0.23 h -0.123 z m 0,-1.748 h 0.123 l -0.013,0.231 h -0.123 z m 0,-1.747 h 0.123 l -0.013,0.231 h -0.123 z m 5.956,-1.341 0.02,-0.364 h -0.255 v 0 l -0.413,0.15 V 2.651 h -0.347 l -0.032,7.465 h 0.21 l 0.56,0.112 v 0 h 0.257 l 0.02,-0.365 h -0.255 v 0 l -0.442,0.16 0.004,-1.623 0.416,0.083 v 0 h 0.257 l 0.02,-0.365 h -0.255 v 0 l -0.435,0.157 0.007,-1.623 0.408,0.082 v 0 h 0.257 l 0.02,-0.365 h -0.255 v 0 l -0.428,0.156 0.007,-1.62 0.4,0.081 v 0 h 0.257 l 0.02,-0.365 H 16.15 v 0 l -0.42,0.153 0.007,-1.615 0.393,0.078 v 0 z M 16.208,2.946 h 0.123 l -0.012,0.23 h -0.123 z m 0,6.988 h 0.123 l -0.012,0.231 h -0.123 z m 0,-1.747 h 0.123 l -0.012,0.231 h -0.123 z m 0,-1.747 h 0.123 l -0.012,0.231 h -0.123 z m 0,-1.747 h 0.123 L 16.319,4.924 H 16.196 Z M 8.654,3.435 8.674,3.07 H 8.419 v 0 L 8.069,3.2 V 2.648 H 7.725 L 7.7,8.584 h 0.228 l 0.469,0.094 v 0 H 8.655 L 8.675,8.313 8.42,8.318 v 0 L 8.05,8.452 8.057,6.865 8.4,6.934 v 0 H 8.658 L 8.678,6.569 H 8.423 v 0 L 8.055,6.7 8.061,5.118 8.397,5.185 v 0 H 8.655 L 8.675,4.82 H 8.42 v 0 L 8.065,4.949 8.072,3.37 8.4,3.436 v 0 z M 8.48,3.14 H 8.603 L 8.591,3.371 H 8.467 Z m 0,5.242 H 8.603 L 8.591,8.612 H 8.467 Z m 0,-1.747 H 8.603 L 8.591,6.865 H 8.467 Z m 0,-1.748 H 8.603 L 8.591,5.118 H 8.467 Z M 6.9,3.124 6.92,2.759 H 6.664 v 0 L 6.258,2.906 V 2.6 H 5.911 l -0.019,9.142 h 0.173 l 0.578,0.116 v 0 h 0.258 l 0.02,-0.365 H 6.665 v 0 l -0.424,0.155 v -1.619 l 0.4,0.081 v 0 H 6.899 L 6.919,9.745 H 6.663 v 0 L 6.243,9.898 V 8.282 l 0.4,0.079 v 0 H 6.901 L 6.921,8 H 6.665 V 8 L 6.248,8.152 V 6.537 l 0.393,0.079 v 0 H 6.899 L 6.919,6.251 H 6.663 v 0 L 6.25,6.401 V 4.789 l 0.39,0.078 v 0 H 6.898 L 6.918,4.502 H 6.662 v 0 L 6.253,4.651 v -1.61 l 0.386,0.077 v 0 z M 6.727,2.83 H 6.85 L 6.837,3.06 H 6.714 Z m 0,8.735 H 6.85 L 6.837,11.796 H 6.714 Z m 0,-1.747 H 6.85 L 6.837,10.049 H 6.714 Z m 0,-1.747 H 6.85 L 6.837,8.301 H 6.714 Z m 0,-1.747 H 6.85 L 6.837,6.554 H 6.714 Z m 0,-1.747 H 6.85 L 6.837,4.807 H 6.714 Z M 3.023,3.066 3.043,2.701 H 2.787 v 0 L 2.429,2.831 V 2.651 H 2.081 L 2.057,8.242 H 2.404 V 8.238 l 0.36,0.072 v 0 H 3.022 L 3.042,7.945 H 2.786 v 0 L 2.406,8.083 2.413,6.49 2.766,6.561 v 0 H 3.024 L 3.044,6.196 H 2.788 v 0 L 2.416,6.331 2.422,4.742 2.768,4.812 v 0 H 3.026 L 3.046,4.447 H 2.79 v 0 L 2.425,4.579 2.427,3 2.765,3.068 v 0 z M 2.849,2.771 H 2.972 L 2.959,3 H 2.836 Z m 0,5.242 H 2.972 L 2.959,8.244 H 2.836 Z m 0,-1.748 H 2.972 L 2.959,6.496 H 2.836 Z m 0,-1.747 H 2.972 L 2.959,4.749 H 2.836 Z m 9.657,-0.597 0.02,-0.365 h -0.255 v 0 L 11.913,3.686 11.92,2.66 h -0.347 l -0.127,18.6 h 0.174 l 0.631,0.127 v 0 h 0.258 l 0.02,-0.365 h -0.255 v 0 l -0.477,0.173 0.011,-1.647 0.446,0.09 v 0 h 0.258 l 0.02,-0.365 h -0.255 v 0 l -0.465,0.169 0.011,-1.64 0.434,0.087 v 0 h 0.258 l 0.02,-0.365 H 12.28 v 0 l -0.453,0.164 0.011,-1.633 0.422,0.085 v 0 h 0.258 l 0.02,-0.365 h -0.255 v 0 l -0.442,0.161 0.011,-1.627 0.411,0.083 v 0 h 0.258 l 0.02,-0.365 h -0.255 v 0 l -0.43,0.157 0.011,-1.621 0.4,0.08 v 0 h 0.258 l 0.02,-0.364 H 12.29 v 0 l -0.418,0.152 0.011,-1.613 0.387,0.077 v 0 h 0.258 l 0.02,-0.365 h -0.255 v 0 l -0.406,0.148 0.011,-1.607 0.375,0.075 v 0 h 0.258 l 0.02,-0.365 h -0.255 v 0 l -0.394,0.143 0.011,-1.6 0.363,0.073 v 0 h 0.258 l 0.02,-0.365 h -0.255 v 0 L 11.917,7.171 11.9,5.6 12.251,5.67 v 0 h 0.258 l 0.02,-0.365 h -0.255 v 0 l -0.37,0.134 0.011,-1.586 0.339,0.068 v 0 z M 12.332,3.626 h 0.123 l -0.013,0.231 h -0.123 z m 0,17.471 h 0.123 l -0.013,0.231 h -0.123 z m 0,-1.747 h 0.123 l -0.013,0.231 h -0.123 z m 0,-1.747 h 0.123 l -0.013,0.231 h -0.123 z m 0,-1.747 h 0.123 l -0.013,0.231 h -0.123 z m 0,-1.747 h 0.123 l -0.013,0.231 h -0.123 z m 0,-1.747 h 0.123 l -0.013,0.231 h -0.123 z m 0,-1.747 h 0.123 l -0.013,0.23 h -0.123 z m 0,-1.747 h 0.123 l -0.013,0.23 h -0.123 z m 0,-1.747 h 0.123 l -0.013,0.23 h -0.123 z m 0,-1.748 h 0.123 L 12.442,5.604 H 12.319 Z M 5.039,3.62 5.059,3.255 H 4.804 v 0 L 4.42,3.4 4.43,2.668 H 4.083 l -0.217,16.61 h 0.347 v -0.049 l 0.568,0.114 v 0 h 0.258 l 0.02,-0.365 H 4.804 v 0 l -0.588,0.213 0.022,-1.706 0.546,0.109 v 0 h 0.258 l 0.02,-0.365 H 4.807 v 0 l -0.565,0.205 0.022,-1.694 0.523,0.105 v 0 H 5.045 L 5.065,15.48 H 4.81 v 0 l -0.542,0.2 0.022,-1.681 0.5,0.1 v 0 h 0.258 l 0.02,-0.365 H 4.813 v 0 l -0.519,0.189 0.022,-1.668 0.477,0.1 v 0 H 5.051 L 5.071,11.99 4.8,12 v 0 l -0.5,0.18 0.021,-1.655 0.455,0.091 v 0 h 0.258 l 0.02,-0.364 H 4.799 v 0 L 4.326,10.424 4.35,8.778 4.782,8.864 v 0 H 5.04 L 5.06,8.499 4.8,8.5 v 0 L 4.35,8.663 4.371,7.034 4.78,7.116 v 0 H 5.038 L 5.058,6.751 H 4.803 v 0 L 4.375,6.906 4.396,5.29 4.783,5.367 v 0 H 5.041 L 5.059,5 H 4.804 v 0 l -0.4,0.147 0.021,-1.6 0.364,0.073 v 0 z M 4.865,3.325 H 4.988 L 4.976,3.556 H 4.852 Z m 0,15.724 H 4.988 L 4.976,19.28 H 4.852 Z m 0,-1.747 H 4.988 L 4.976,17.533 H 4.852 Z m 0,-1.747 H 4.988 L 4.976,15.786 H 4.852 Z m 0,-1.747 H 4.988 L 4.976,14.039 H 4.852 Z m 0,-1.747 H 4.988 L 4.976,12.292 H 4.852 Z m 0,-1.747 h 0.123 l -0.012,0.23 H 4.852 Z m 0,-1.747 H 4.988 L 4.976,8.797 H 4.852 Z m 0,-1.747 H 4.988 L 4.976,7.05 H 4.852 Z m 0,-1.747 H 4.988 L 4.976,5.3 H 4.852 Z"/>

</svg>
